packages/calcite-ui-icons/icons/subheading-3-rtl-24.svg

<?xml version="1.0" encoding="UTF-8"?><svg id="icons" xmlns="http://www.w3.org/2000/svg" viewBox="0 0 24 24"><defs><style>.cls-1{fill:none;}.cls-2{fill-rule:evenodd;}</style></defs><rect class="cls-1" x="0" width="24" height="24" transform="translate(24 24) rotate(-180)"/><path class="cls-2" d="M22,7v3c0,.55176-.44824,1-1,1h-2s0-1,0-1h2v-1h-2s0-1,0-1h2v-1h-2s0-1,0-1h2c.55176,0,1,.44824,1,1ZM17,7H2s0,2,0,2h15s0-2,0-2ZM22,13H2s0,1,0,1h20s0-1,0-1ZM22,17H2s0,1,0,1h20s0-1,0-1ZM22,21H2s0,1,0,1h20s0-1,0-1ZM22,3.00003H2s0,.99997,0,.99997h20s0-.99997,0-.99997Z"/></svg>

<svg xmlns="http://www.w3.org/2000/svg" viewBox="0 0 24 24"><path d="M22 7v3a1 1 0 0 1-1 1h-2v-1h2V9h-2V8h2V7h-2V6h2a1 1 0 0 1 1 1zm-5 0H2v2h15V7zm5 6H2v1h20v-1zm0 4H2v1h20v-1zm0 4H2v1h20v-1zm0-18H2v1h20V3z" fill-rule="evenodd"/><path fill="none" d="M0 0h24v24H0z"/></svg>
